presets/IPS-IR-Faux-Swap.xmp
<x:xmpmeta xmlns:x="adobe:ns:meta/" x:xmptk="Adobe XMP Core 7.0-c000 1.000000, 0000/00/00-00:00:00">
 <rdf:RDF xmlns:rdf="http://www.w3.org/1999/02/22-rdf-syntax-ns#">
  <rdf:Description rdf:about=""
    xmlns:crs="http://ns.adobe.com/camera-raw-settings/1.0/"
   crs:PresetType="Normal"
   crs:Cluster=""
   crs:UUID="2F7B9E14C8D54A36B92E1F0A6D48C573"
   crs:SupportsAmount="False"
   crs:SupportsColor="True"
   crs:SupportsMonochrome="False"
   crs:SupportsHighDynamicRange="True"
   crs:SupportsNormalDynamicRange="True"
   crs:SupportsSceneReferred="True"
   crs:SupportsOutputReferred="True"
   crs:RequiresRGBTables="False"
   crs:Version="16.0"
   crs:ProcessVersion="11.0"
   crs:WhiteBalance="Custom"
   crs:Temperature="2000"
   crs:Tint="-20"
   crs:Contrast2012="+35"
   crs:Highlights2012="-15"
   crs:Shadows2012="+15"
   crs:Vibrance="+30"
   crs:Saturation="+15"
   crs:RedHue="+100"
   crs:RedSaturation="+20"
   crs:BlueHue="-100"
   crs:BlueSaturation="+20"
   crs:HasSettings="True">
   <crs:Name>
    <rdf:Alt>
     <rdf:li xml:lang="x-default">IPS — IR Faux Swap</rdf:li>
    </rdf:Alt>
   </crs:Name>
   <crs:ShortName>
    <rdf:Alt>
     <rdf:li xml:lang="x-default">IR Faux Swap</rdf:li>
    </rdf:Alt>
   </crs:ShortName>
   <crs:Group>
    <rdf:Alt>
     <rdf:li xml:lang="x-default">Infrared Photography Studio</rdf:li>
    </rdf:Alt>
   </crs:Group>
   <crs:Description>
    <rdf:Alt>
     <rdf:li xml:lang="x-default">IR Cool Base plus extreme Calibration primary-hue shifts (Red +100 / Blue −100) — the closest Lightroom gets to a red↔blue channel swap without a profile. Not a true swap: for the real Aerochrome look use the IPS app or its .dcp profile. Apply to RAW.</rdf:li>
    </rdf:Alt>
   </crs:Description>
  </rdf:Description>
 </rdf:RDF>
</x:xmpmeta>
